!!!OTL: KOMM DU BLANKER WEIHEDEGEN
!!!ARE: Europa, Mitteleuropa, Deutschland
!!!SCT: F0469
!!!YEM: Copyright 1995, estate of Helmut Schaffrath.
**kern
*ICvox
*Ivox
!! Mixed meters:  3/4; 4/4
*M3/4
*k[b-e-]
*B-:
=1
{4b-
4dd
8cc
8a
=2
4b-
4dd
8cc
8a}
=3
{8b-
8g
4f
4e-
=4
4d
4r}
{8f
8f
=5
4f
4f
8a
8cc
=6
4cc
4b-}
{8b-
8dd
=7
8dd
8cc
8ee-
8cc
8b-
8a
=8
4cc
4b-
4r}
=9
{4b-
4dd
8cc
8a
=10
4b-
4dd
8cc
8a}
=11
{8b-
8g
4f
4e-
=12
4d
4r}
{8f
8f
=13
4f
4f
8a
8cc
=14
4cc
4b-}
{8b-
8dd
=15
8dd
8cc
8ee-
8cc
8b-
8a
=16
4cc
4b-
4r}
=17
{8f
8f
=18
*M4/4
4.b-
8cc
8dd
8cc
8b-
8a
=19
*M3/4
8a
8g
4g
4r}
=20
{8g
8g
=21
*M4/4
4.cc
8dd
8een
8dd
8cc
8b-
=22
*M3/4
4dd
4cc
4r}
=23
{8f
8f
=24
*M4/4
4b-
4b-
4cc
4cc
=25
*M3/4
8dd
8ee-
4ff
4r}
=26
{8ee-
8ee-
=27
*M4/4
4dd
8ee-
8cc
4b-
4a
=28
*M3/4
8b-
8ff
4ff
4r}
=29
{8dd
8dd
=30
*M4/4
4cc
8ee-
8cc
4b-
4a
=31
4cc
4b-
4r}
==
!!!AGN: Studenten -, Burschenschafts - Lied
!!!ONB: ESAC (Essen Associative Code) Database: FINK
!!!AMT: irregular
!!!AIN: vox
!!!EED: Helmut Schaffrath
!!!EEV: 1.0
*-
